twotone/svg/time_to_leave.svg

<svg xmlns="http://www.w3.org/2000/svg" width="24" height="24"><path fill="none" d="M0 0h24v24H0V0z"/><g fill="currentColor"><path opacity=".3" d="M5.12 11l-.12.34V16h14v-4.66l-.12-.34H5.12zm2.38 4c-.83 0-1.5-.67-1.5-1.5S6.67 12 7.5 12s1.5.67 1.5 1.5S8.33 15 7.5 15zm9 0c-.83 0-1.5-.67-1.5-1.5s.67-1.5 1.5-1.5 1.5.67 1.5 1.5-.67 1.5-1.5 1.5z"/><path d="M18.92 5.01C18.72 4.42 18.16 4 17.5 4h-11c-.66 0-1.21.42-1.42 1.01L3 11v8c0 .55.45 1 1 1h1c.55 0 1-.45 1-1v-1h12v1c0 .55.45 1 1 1h1c.55 0 1-.45 1-1v-8l-2.08-5.99zM6.85 6h10.29l1.04 3H5.81l1.04-3zM19 16H5v-4.66l.12-.34h13.77l.11.34V16z"/><circle cx="7.5" cy="13.5" r="1.5"/><circle cx="16.5" cy="13.5" r="1.5"/></g></svg>

<?xml version="1.0" encoding="utf-8"?>
<!-- Generator: Adobe Illustrator 19.1.0, SVG Export Plug-In . SVG Version: 6.00 Build 0)  -->
<svg version="1.1" xmlns="http://www.w3.org/2000/svg" xmlns:xlink="http://www.w3.org/1999/xlink" x="0px" y="0px" width="24px"
	 height="24px" viewBox="0 0 24 24" enable-background="new 0 0 24 24" xml:space="preserve">
<g id="Bounding_Boxes">
	<g id="ui_x5F_spec_x5F_header_copy_2">
	</g>
	<path fill="none" d="M0,0h24v24H0V0z"/>
</g>
<g id="Duotone" fill="currentColor">
	<g id="ui_x5F_spec_x5F_header_copy">
	</g>
	<g>
		<path opacity="0.3" d="M5.12,11L5,11.34V16h14v-4.66L18.88,11H5.12z M7.5,15C6.67,15,6,14.33,6,13.5C6,12.67,6.67,12,7.5,12
			S9,12.67,9,13.5C9,14.33,8.33,15,7.5,15z M16.5,15c-0.83,0-1.5-0.67-1.5-1.5c0-0.83,0.67-1.5,1.5-1.5s1.5,0.67,1.5,1.5
			C18,14.33,17.33,15,16.5,15z"/>
		<path d="M18.92,5.01C18.72,4.42,18.16,4,17.5,4h-11C5.84,4,5.29,4.42,5.08,5.01L3,11v8c0,0.55,0.45,1,1,1h1c0.55,0,1-0.45,1-1v-1
			h12v1c0,0.55,0.45,1,1,1h1c0.55,0,1-0.45,1-1v-8L18.92,5.01z M6.85,6h10.29l1.04,3H5.81L6.85,6z M19,16H5v-4.66L5.12,11h13.77
			L19,11.34V16z"/>
		<circle cx="7.5" cy="13.5" r="1.5"/>
		<circle cx="16.5" cy="13.5" r="1.5"/>
	</g>
</g>
</svg>
